Point/img/best1.svg

<svg width="120" height="129" viewBox="0 0 120 129" fill="none" xmlns="http://www.w3.org/2000/svg">
<path fill-rule="evenodd" clip-rule="evenodd" d="M70.838 2.45555C56.3698 1.01031 29.2743 -3.27122 17.2203 4.65562C5.05884 12.6531 2.78466 28.0242 0.439934 42.1333C-1.66564 54.8033 4.29472 66.6164 7.57549 79.0472C11.1396 92.5515 3.74394 109.959 14.0893 119.596C24.8846 129.652 51.4374 129.055 66.2198 126.963C80.1663 124.99 84.661 115.012 96.2221 107.162C108.115 99.0869 111.859 109.349 116.162 95.8643C120.469 82.3694 122.03 57.6053 116.162 44.681C111.038 33.3946 108.638 20.5876 98.863 12.7359C88.7574 4.61845 83.8682 3.75717 70.838 2.45555Z" fill="#C6E1F6"/>
<path d="M59.9152 83.4818C70.9453 83.4818 79.8869 74.5401 79.8869 63.51C79.8869 52.48 70.9453 43.5383 59.9152 43.5383C48.8851 43.5383 39.9435 52.48 39.9435 63.51C39.9435 74.5401 48.8851 83.4818 59.9152 83.4818Z" stroke="#00325A" stroke-width="4.79321" stroke-linecap="round" stroke-linejoin="round"/>
<path d="M65.9067 71.4988L61.0855 66.6776C60.3364 65.9287 59.9154 64.9129 59.9152 63.8536V51.527" stroke="#00325A" stroke-width="4.79321" stroke-linecap="round" stroke-linejoin="round"/>
</svg>

<svg width="120" height="129" fill="none" xmlns="http://www.w3.org/2000/svg"><path fill-rule="evenodd" clip-rule="evenodd" d="M70.838 2.456C56.37 1.01 29.274-3.271 17.22 4.656 5.06 12.653 2.785 28.024.44 42.133c-2.106 12.67 3.855 24.483 7.135 36.914 3.565 13.505-3.831 30.912 6.514 40.549 10.796 10.056 37.348 9.459 52.13 7.367 13.947-1.973 18.442-11.951 30.003-19.801 11.893-8.075 15.637 2.187 19.94-11.298 4.307-13.495 5.868-38.259 0-51.183-5.124-11.286-7.524-24.093-17.299-31.945-10.106-8.118-14.995-8.979-28.025-10.28z" fill="#C6E1F6"/><path d="M59.915 83.482c11.03 0 19.972-8.942 19.972-19.972 0-11.03-8.942-19.972-19.972-19.972-11.03 0-19.971 8.942-19.971 19.972 0 11.03 8.941 19.972 19.971 19.972z" stroke="#00325A" stroke-width="4.793" stroke-linecap="round" stroke-linejoin="round"/><path d="M65.907 71.499l-4.821-4.821a3.994 3.994 0 01-1.17-2.824V51.527" stroke="#00325A" stroke-width="4.793" stroke-linecap="round" stroke-linejoin="round"/></svg>
